!!!!SEGMENT: pl-wn--mus-iii-111-051-cim_katski-apolinary--marsz-zalobny-op-17.krn
!!!cenid: 18xx:3635
!!!COM: Kątski, Apolinary
!!!COM-rismID: pe30020040
!!!CDT: 1825-1879
!!!CNT: Polish
!!!OTL: Marsz żałobny op. 17
!!!PDT: 1861
!!!AGN:
!!!SMS-siglum: PL-Wn
!!!SMS-shelfmark: Mus.III.111.051 Cim
!!!SMS-shelfwork: W
!!!SMS-variant:
!!!SMS-altvar:
!!!NIFC-rismSourceID:
!!!NIFC-islandoraID:
!!!URL-pdf-islandora:
!!!URL-scan: https://polona.pl/item/marsz-zalobny-ku-czci-s-p-j-x-antoniego-melchiora-fijalkowskiego-arcybiskupa,MTA1NjQxNA/9 @EN{Scan on Polona} @PL{Skany w portalu Polona}
!!!ONB-nifc:
!!!AIN: 2 piano
!!!key: c
!!!OMD: Largo.
**kern	**kern	**dynam
*part2	*part1	*part1
*staff2	*staff1	*
*I"PIANO.	*I"PIANO.	*
*I'	*I'	*
*Ipiano	*Ipiano	*
*ICklav	*ICklav	*
*clefF4	*clefG2	*
*k[b-e-a-]	*k[b-e-a-]	*
*c:	*c:	*
*kcancel	*kcancel	*
*M3/4	*M3/4	*
=1	=1	=1
*xywh-2:233,156,2668,998	*xywh-2:233,156,2668,998	*
*8ba	*	*
!LO:TX:b:i:t=una corda sempre sin al segno *	!	!LO:DY:b=2
8CCL 8CCC`/	2.r	pp
16r	.	.
(16GGG/Jk	.	.
8CC 8CCC`/)	.	.
8r	.	.
(4GGG^t/	.	.
16qqFFF#X/LL	.	.
16qqGGG/JJ)	.	.
=2	=2	=2
8CCL 8CCC`/	2.r	.
16r	.	.
(16GGG/Jk	.	.
8CC 8CCC`/)	.	.
8r	.	.
(4GGG^t/	.	.
16qqFFF#X/LL	.	.
16qqGGG/JJ)	.	.
=3	=3	=3
8CCL 8CCC`/	2.r	.
16r	.	.
(16GGG/Jk	.	.
8CC 8CCC`/)	.	.
8r	.	.
(4GGG^t/	.	.
16qqFFF#X/LL	.	.
16qqGGG/JJ)	.	.
=4	=4	=4
8CCL 8CCC`/	2.r	.
16r	.	.
(16GGG/Jk	.	.
8CC 8CCC`/)	.	.
8r	.	.
(4GGG^t/	.	.
16qqFFF#X/LL	.	.
16qqGGG/JJ)	.	.
!!linebreak:original
=5	=5	=5
*	*	*^
*xywh-2:208,1060,2627,618	*xywh-2:208,1060,2627,618	*	*
!	!	!LO:DY:rj	!LO:DY:b=2:rj
8CC 8CCC\	8cL 8E-<`>/	ppp	ppp
*X8ba	*	*	*
8r	16r	.	.
.	(16G/Jk	.	.
8E- 8C`\	8c`/)	.	.
8r	8r	.	.
4G 4GG^\	(4d 4Bn^>t/	.	.
.	16qqc/LL	.	.
.	16qqd/JJ)	.	.
*	*	*v	*v
=6	=6	=6
*	*^	*
8G 8C`\	8e-`/L	8c\	.
8r	16re	4.ryy	.
.	(16c/Jk	.	.
8G 8C`\	8e-`/)	.	.
8r	8r	.	.
4A- 4BB-^\	(<4f^T/	4d\	.
.	16qqe-/LL	.	.
.	16qqf/JJ)	.	.
=7	=7	=7	=7
8G 8E-`\	8g`/L	8B-\	.
8r	16r	8rA	.
.	(16e-/Jk	.	.
8G 8E-`\	8g`/)	8B-\	.
8r	8r	4.ryy	.
4A- 4F^\	(4f 4d^>t/	.	.
.	16qqen/LL	.	.
.	16qqf/JJ)	.	.
=8	=8	=8	=8
8G`\	8e-`/L	8c\	.
8r	16rf	8rA	.
.	(16c/Jk	.	.
8GG 8GGG`/	8e-`>/)	4ryy	.
8rGG	8r	.	.
8GG 8GGG`/	(4d^>Tt/	4Bn< 4F</	.
8r	.	.	.
.	16qqc/LL	.	.
.	16qqd/JJ)	.	.
=9	=9	=9	=9
!	!	!	!LO:DY:t=sempre %s
8CL 8CC\	8c/	8G< 8E-</	pp
16r	8r	8ryy	.
(16GG\Jk	.	.	.
8C 8CC`\)	4r	4ryy	.
8r	.	.	.
(<4GG^t\	4r	4ryy	.
16qqFF#X/LL	.	.	.
16qqGG/JJ)	.	.	.
*	*v	*v	*
!!linebreak:original
=10	=10	=10
*xywh-2:204,1576,2537,663	*xywh-2:204,1576,2537,663	*
*8ba	*	*
8CCL 8CCC`/	2.r	.
16r	.	.
(16GGG/Jk	.	.
8CC 8CCC`/)	.	.
8r	.	.
(4GGG^>t/	.	.
16qqFFF#X/LL	.	.
16qqGGG/JJ)	.	.
=11	=11	=11
*	*^	*
!	!	!	!LO:DY:a
8CC 8CCC\	8cL 8E-</	2ryy	ppp
*X8ba	*	*	*
8r	16rc	.	.
.	(16G/Jk	.	.
8E- 8C`\	8c`/)	.	.
8r	8r	.	.
4G 4GG^\	(<4d^t/	4Bn\	.
.	16qqc/LL	.	.
.	16qqd/JJ)	.	.
=12	=12	=12	=12
8G 8C\	8e-`/L	8c\	.
8r	16rf	8rA	.
.	(16c/Jk	.	.
8G 8C\	8e-`>/)	4ryy	.
8r	8r	.	.
4A- 4BB-^\	(<4f^T/	4d\	.
.	16qqe-/LL	.	.
.	16qqf/JJ)	.	.
=13	=13	=13	=13
8G 8E-\	8g`/L	8B-\	.
8r	16r	8ryy	.
.	(>16e-/Jk	.	.
8G 8E-\	8g`/)	8B-\	.
8r	8r	8ryy	.
4A- 4F^\	(4f^T/	4d\	.
.	16qqen/LL	.	.
.	16qqf/JJ)	.	.
=14	=14	=14	=14
8G`\	8e-`/L	8c\	.
8r	16rf	8rA	.
.	(16c/Jk	.	.
8GG 8GGG`/	8e-`>/)	4ryy	.
8r	8r	.	.
8GG 8GGG`/	(4d^>Tt/	4Bn< 4F</	.
8r	.	.	.
.	16qqc/LL	.	8ryy
.	16qqd/JJ)	.	.
!!linebreak:original
=15	=15	=15	=15
*xywh-2:216,2112,2574,646	*xywh-2:216,2112,2574,646	*xywh-2:216,2112,2574,646	*
*8ba	*	*	*
8CCL 8CCC\	8c 8G< 8E-</	8G< 8E-</	.
16r	8r	8ryy	.
(16GGG\Jk	.	.	.
8CC 8CCC`\)	4r	4ryy	.
8r	.	.	.
(<4GGG^t\	4r	4ryy	.
16qqFFF#X/LL	.	.	.
16qqGGG/JJ)	.	.	.
*	*v	*v	*
=16	=16	=16
*	*	*^
8CCL 8CCC/	4r	.	.
16r	.	.	.
(16GGG/Jk	.	.	.
8CC 8CCC`/)	8r	.	.
*X8ba	*	*	*
!	!	!LO:DY:rj	!LO:DY:b=2
(8G\L	(8g\L	p <	p
8c\	8cc\	.	.
8e-\J)	8ee-\J)	[	.
*	*	*v	*v
=17	=17	=17
*	*^	*^
4e- 4c 4An 4F#X\	2ee- 2cc 2an 2f#X\	2ryy	>	.
8.r	.	.	.	.
!	!	!	!	!LO:DY:b=2:rj
16GG 16GGG`/	.	.	.	p
16AA-LL 16AAA-`/	4dd 4g/	4fn\	]	.
16AAn 16AAAn`/	.	.	.	.
16BB- 16BBB-`/	.	.	.	.
16BBnJJ 16BBBn`/	.	.	.	.
*	*v	*v	*	*
=18	=18	=18	=18
8CL 8CC`/	4cc 4g 4e-/	.	.
16r	.	.	.
(16GG/Jk	.	.	.
8C 8CC`/)	8r	.	.
!	!	!LO:DY:rj	!LO:DY:b=2
(8c\L	(8cc\L	p <	p
8e-\	8ee-\	.	.
8g\J)	8gg\J)	[[	.
=19	=19	=19	=19
4g 4e- 4B-X\	2gg 2ee- 2b-X\	>	.
8.r	.	.	.
!	!	!	!LO:DY:b=2:rj
16GG 16GGG`/	.	.	p
16AA-LL 16AAA-`/	4ff 4dd 4g\	]	.
16AAn 16AAAn`/	.	.	.
16BB- 16BBB-`/	.	.	.
16BBnJJ 16BBBn`/	.	.	.
!!linebreak:original
=20	=20	=20	=20
*xywh-2:196,2632,2627,818	*xywh-2:196,2632,2627,818	*	*
8CL 8CC`/	4ee- 4cc 4g\	.	.
16r	.	.	.
(16GG/Jk	.	.	.
8C 8CC`/)	8r	.	.
!	!	!LO:DY:rj	!LO:DY:b=2
(8G\L	(8g\L	p <	p
8c\	8cc\	.	.
8e-\J)	8ee-\J)	[	.
*	*	*v	*v
=21	=21	=21
*	*^	*^
4e- 4c 4An 4F#X\	2ee- 2cc 2an 2f#X\	2ryy	>	.
8.r	.	.	.	.
!	!	!	!	!LO:DY:b=2:rj
16GG 16GGG`/	.	.	.	p
16AA-LL 16AAA-`/	4dd 4g/	4fn\	]	.
16AAn 16AAAn`/	.	.	.	.
16BB- 16BBB-`/	.	.	.	.
16BBnJJ 16BBBn`/	.	.	.	.
*	*v	*v	*	*
=22	=22	=22	=22
8CL 8CC`/	4cc 4g 4e-/	.	.
16r	.	.	.
(16GG/Jk	.	.	.
8C 8CC`/)	8r	.	.
(8G\L	(8g/L	p <	.
8A-X\	8a-X/	.	.
8D-X\J)	8d-X/J)	[	.
*	*	*v	*v
=23	=23	=23
*^	*	*^
4ryy	4F\	2f/	>	.
!	!	!	!	!LO:DY:b=2
4d-X 4A-/	8.r	.	.	pp
.	(16FF#X 16FFF#X`/	.	.	.
4ryy	16GGLL 16GGG`/	4d 4G< 4Fn</	]	.
.	16AA- 16AAA-`/	.	.	.
.	16AAn 16AAAn`/	.	.	.
.	16BBnJJ 16BBBn`/)	.	.	.
*v	*v	*	*v	*v
=24	=24	=24
*	*Xped	*
!	!	!LO:DY:b=2:rj
8CL 8CC\	4c 4G< 4E-</	f
!	!LO:TX:b:i:t=con energica	!
16r	.	.
*8ba	*	*
(16GGG\Jk	.	.
8CC 8CCC`\)	2r	.
8r	.	.
(<4GGG^t\	.	.
16qqFFF#X/LL	.	.
16qqGGG/JJ)	.	.
*X8ba	*	*
!!pagebreak:original
=25	=25	=25
*xywh-3:261,289,2524,735	*xywh-3:261,289,2524,735	*
!LO:SIC:v:s=8CCL 8CCC/	!	!
8CL 8CC/	8c/L	f
16r	16r	.
!LO:SIC:v:s=(16GGG/Jk	!	!
(16GG/Jk	(16G/Jk	.
!LO:SIC:v:s=8CC 8CCC`/)	!	!
8C 8CC`/)	8c`/)	.
8r	8r	.
!LO:SIC:v:s=(4GGG^>t/	!	!
(4GG^>t/	(4G^>t/	.
!LO:SIC:v:s=16qqFFF#X/LL	!	!
16qqFF#X/LL	16qqF#X/LL	.
!LO:SIC:v:s=16qqGGG/JJ)	!	!
16qqGG/JJ)	16qqG/JJ)	.
=26	=26	=26
!	!LO:TX:a:B:t=Maestoso	!
4CC 4CCC/	8ccL 8g 8e- 8c/	ff
.	16r	.
.	16g/Jk	.
4C 4CC/	4cc 4g 4e- 4c/	.
4GG 4GGG^/	4dd 4bn 4g 4d^/	.
=27	=27	=27
4CC 4CCC/	8ee-L 8cc 8g 8e-/	.
.	16r	.
.	16cc/Jk	.
4C 4CC/	4ee- 4cc 4g 4e-/	.
4BB- 4BBB-^/	4ff 4dd 4b-X 4f^\	.
=28	=28	=28
4EE- 4EEE-/	8ggL 8ee- 8b- 8g\	.
.	16r	.
.	16ee-\Jk	.
4E- 4EE-/	4gg 4ee- 4b- 4g\	.
4F 4FF^/	4ff 4dd 4a- 4f^\	.
=29	=29	=29
4G 4GG/	8ee-L 8cc 8g 8e-/	.
.	16r	.
.	16cc/Jk	.
4GG 4GGG/	4ee- 4cc 4g 4e-/	.
4GG 4GGG^/	4dd 4bn 4f 4d^/	.
!!linebreak:original
=30	=30	=30
*	*^	*
*xywh-3:215,1003,2524,615	*xywh-3:215,1003,2524,615	*xywh-3:215,1003,2524,615	*
8CL 8CC\	4cc 4g 4e- 4c/	8.rA<	.
16r	.	.	.
*8ba	*	*	*
16GGG\Jk	.	16G</	.
4CC 4CCC\	4c</	2ryy	.
(<4GGG^<t<\	(<4G<^>t</	.	.
*	*v	*v	*
16qqFFF#X\LL	16qqF#X</LL	.
16qqGGG\JJ)	16qqG</JJ)	.
=31	=31	=31
8CCL 8CCC`\	8c<`>/L	.
16r	16r<	.
16GGG`\Jk	16G<`>/Jk	.
4CC 4CCC\	4c</	.
(<4GGG^t\	(<4G<^>t</	.
16qqFFF#X\LL	16qqF#X</LL	.
16qqGGG\JJ)	16qqG</JJ)	.
=32	=32	=32
4CC 4CCC/	8ccL 8g 8e- 8c/	ff
.	16r	.
.	16g/Jk	.
*X8ba	*	*
4C 4CC/	4cc 4g 4e- 4c/	.
4GG 4GGG^/	4dd 4bn 4g^/	.
=33	=33	=33
4CC 4CCC/	8ee-L 8cc 8g\	.
.	16r	.
.	16cc\Jk	.
4C 4CC/	4ee- 4cc 4g 4e-/	.
4BB- 4BBB-^/	4ff 4dd 4b-X^\	.
=34	=34	=34
4EE- 4EEE-/	8ggL 8ee- 8b-\	.
.	16r	.
.	16ee-\Jk	.
4E- 4EE-/	4gg 4ee- 4b- 4g\	.
4F 4FF^/	4ff 4dd 4a-^\	.
=35	=35	=35
4G 4GG/	8ee-L 8cc 8g\	.
.	16r	.
.	16cc\Jk	.
4GG 4GGG/	4ee- 4cc 4g 4e-/	.
4GG 4GGG^/	4dd 4bn 4f^/	.
!!linebreak:original
=36	=36	=36
*	*^	*
*xywh-3:178,1561,2656,611	*xywh-3:178,1561,2656,611	*xywh-3:178,1561,2656,611	*
8CL 8CC\	4cc 4g 4e-/	8.r<	.
16r	.	.	.
*8ba	*	*	*
16GGG\Jk	.	16G</	.
4CC 4CCC\	4c</	2ryy	.
(<4GGG^<t<\	(<4G<^t</	.	.
*	*v	*v	*
16qqFFF#X\LL	16qqF#X</LL	.
16qqGGG\JJ)	16qqG</JJ)	.
=37	=37	=37
*	*	*^
8CCL 8CCC\	8c</L	.	.
16r	16r<	.	.
(<16GGG\Jk	(16G</Jk	.	.
8CC 8CCC`\)	8c<`/)	.	.
*X8ba	*	*	*
!	!	!	!LO:DY:b=2
(8G\L	(8g\L	p <	p
8c\	8cc\	.	.
8e-\J)	8ee-\J)	[	.
*	*	*v	*v
=38	=38	=38
*	*^	*
4..e- 4..c 4..An 4..F#X\	2ee- 2cc 2an 2f#X\\	2ryy	sf >
16GG 16GGG`/	.	.	.
16AA-LL 16AAA-X`/	4dd 4g/	4fn\	]
16AAn 16AAAn`/)	.	.	.
16BB- 16BBB-`/	.	.	.
16BBnJJ 16BBBn`/	.	.	.
*	*v	*v	*
=39	=39	=39
*	*	*^
8CL 8CC/	4cc 4g 4e-/	.	.
16r	.	.	.
(16GG/Jk	.	.	.
8C 8CC`/)	8r	.	.
!	!	!	!LO:DY:b=2
(8c\L	(8cc\L	p <	p
8e-\	8ee-\	.	.
8g\J)	8gg\J)	[	.
*	*	*v	*v
=40	=40	=40
4..g 4..e- 4..B-X\	2gg 2ee- 2b-X\	>
16GG 16GGG`/	.	.
16AA-LL 16AAA-`/	4ff 4dd 4g\	]
16AAn 16AAAn`/	.	.
16BB-X 16BBB-X`/	.	.
16BBnJJ 16BBBn`/	.	.
!!linebreak:original
=41	=41	=41
*	*	*^
*xywh-3:220,2135,2581,561	*xywh-3:220,2135,2581,561	*	*
8CL 8CC/	4ee- 4cc 4g\	.	.
16r	.	.	.
(16GG/Jk	.	.	.
8C 8CC`/)	8r	.	.
!	!	!	!LO:DY:b=2
(8G\L	(8g\L	p	p
8c\	8cc\	.	.
8e-\J)	8ee-\J)	.	.
*	*	*v	*v
=42	=42	=42
*	*^	*
4..e- 4..c 4..An 4..F#X\	2ee- 2cc 2an 2f#X\	2ryy	>
16GG 16GGG`/	.	.	.
16AA-XLL 16AAA-X`/	4dd 4g/	4fn\	]
16AAn 16AAAn`/	.	.	.
16BB- 16BBB-`/	.	.	.
16BBnJJ 16BBBn`/	.	.	.
*	*v	*v	*
=43	=43	=43
*	*	*^
8CL 8CC`/	4cc 4g 4e-/	.	.
16r	.	.	.
(16GG/Jk	.	.	.
8C 8CC`/)	8r	.	.
!	!	!	!LO:DY:b=2
(8G\L	(8g/L	p <	p
8A-X\	8a-/	.	.
8D-X\J)	8d-X/J)	[	.
=44	=44	=44	=44
*^	*	*	*
4r	4..F\	2f/	>	.
4d-X 4A-/	.	.	.	.
.	16FF#X 16FFF#X`>\	.	.	.
4ryy	16GGLL 16GGG`\	4dn 4Bn< 4G< 4Fn</	]	.
.	16AA- 16AAA-`\	.	.	.
.	16AAn 16AAAn`\	.	.	.
.	16BBnJJ 16BBBn`\	.	.	.
*v	*v	*	*	*
!!linebreak:original
=45	=45	=45	=45
*xywh-3:215,2614,2602,813	*xywh-3:215,2614,2602,813	*	*
8CL 8CC\	4c 4G< 4E-</	.	.
16r	.	.	.
(16GGJk 16GGG\	.	.	.
8C 8CC`\)	8r	.	.
!	!	!	!LO:DY:b=2
(8G\L	(8ggL 8g\	f	f
8c\	8ccc 8cc\	.	.
8e-\J)	8eee-J 8ee-\)	.	.
=46	=46	=46	=46
*^	*	*	*
4..e- 4..c 4..An 4..F#X^\	4rCC	2eee- 2ccc 2aan 2ff#X 2ee-^\	.	.
!	!	!	!	!LO:DY:b=2:rj
.	2CC 2CCC\	.	.	ff
16GG 16GGG`</	.	.	.	.
16AA-LL 16AAA-`</	.	4ddd 4gg 4ffn 4dd\	.	.
16AAn 16AAAn`</	.	.	.	.
16BB- 16BBB-`</	.	.	.	.
16BBnJJ 16BBBn`</	.	.	.	.
*v	*v	*	*	*
=47	=47	=47	=47
8CL 8CC/	4ccc 4gg 4ee- 4cc\	.	.
16r	.	.	.
(16GGJk 16GGG/	.	.	.
8C 8CC`/)	8r	.	.
!	!	!	!LO:DY:b=2
(8c\L	(8cccL 8cc\	f	f
8e-\	8eee- 8ee-\	.	.
8g\J)	8gggJ 8gg\)	.	.
=48	=48	=48	=48
*^	*	*	*
4..g 4..e- 4..B-^\	4rEE	2ggg 2eee- 2bb- 2gg^\	.	.
!	!	!	!	!LO:DY:b=2:rj
.	2BBB- 2BBBB-\	.	.	ff
16GG 16GGG`</	.	.	.	.
16AA-LL 16AAA-`</	.	4fff 4ddd 4gg 4ff\	.	.
16AAn 16AAAn`</	.	.	.	.
16BB- 16BBB-`</	.	.	.	.
16BBnJJ 16BBBn`</	.	.	.	.
*v	*v	*	*v	*v
!!pagebreak:original
=49	=49	=49
*xywh-4:220,86,2669,843	*xywh-4:220,86,2669,843	*
8CL 8CC`/	4eee- 4ccc 4gg\	.
16r	.	.
16GGJk 16GGG`/	.	.
8C 8CC`/	8r	.
(8G\L	(8ggL 8g\	.
8c\	8ccc 8cc\	.
8e-\J)	8eee-J 8ee-\)	.
=50	=50	=50
*^	*	*
4..e- 4..c 4..An 4..F#X\	4rCC	2eee- 2ccc 2aan 2ff#X 2ee-^\	.
.	2CC 2CCC\	.	.
16GG 16GGG`</	.	.	.
16AA-XLL 16AAA-X`</	.	4ddd 4gg 4ffn 4dd\	.
16AAn 16AAAn`</	.	.	.
16BB- 16BBB-`</	.	.	.
16BBnJJ 16BBBn`</	.	.	.
*v	*v	*	*
=51	=51	=51
8CL 8CC/	4ccc 4gg 4ee- 4cc\	.
16r	.	.
16GGJk 16GGG/	.	.
8C 8CC/	8r	.
(8G\L	(8ggL 8g\	.
8A-X\	8aa-X 8a-X\	.
8D-X\J)	8dd-XJ 8d-X\)	.
=52	=52	=52
*	*^	*
4F\	4ra	2ff 2f^>\	.
8.FFL 8.FFF/	4dd-X 4a-/	.	.
16FF#XJk 16FFF#X/	.	.	.
16GGLL 16GGG`/	4g 4f/	4ddn 4dn\	.
16AA- 16AAA-`/	.	.	.
16AAn 16AAAn`/	.	.	.
16BBnJJ 16BBBn`/	.	.	.
!!linebreak:original
=53	=53	=53	=53
*xywh-4:204,884,2669,649	*xywh-4:204,884,2669,649	*xywh-4:204,884,2669,649	*
8CL 8CC\	4cc 4g 4e- 4c/	8.rA<	.
16r	.	.	.
*8ba	*	*	*
(>16GGGJk 16GGGG\	.	16G</	.
4CC 4CCC`\)	4r	4ryy	.
(4GGG^Tt\	4r	(<4G<^t</	.
16qqFFF#X\LL	.	16qqF#X</LL	.
16qqGGG\JJ)	.	16qqG</JJ)	.
*	*v	*v	*
=54	=54	=54
8CCL 8CCC\	8c</L	.
16r	16r<	.
16GGGJk 16GGGG\	(16G</Jk	.
4CC 4CCC\	4c<`/)	.
(<4GGG^t\	(4G<^t</	.
16qqFFF#X/LL	16qqF#X</LL	.
16qqGGG/JJ)	16qqG</JJ)	.
=55	=55	=55
8CC 8CCC\	8c</	.
8r	8r<	.
8CCC 8CCCC\	4r	.
*X8ba	*	*
8r	.	.
4r	4r	.
=56	=56	=56
2.r	2.r	.
=57||	=57||	=57||
*k[b-e-a-d-]	*k[b-e-a-d-]	*
!	!LO:TX:a:B:t=energica	!LO:DY:t=%s senza ped
4c 4A-^\	4a- 4e-^/	ff
4c 4A-^\	4a- 4e-^/	.
4c 4A-^\	4a- 4e-^/	.
=58	=58	=58
2d- 2A- 2D-^\	2a- 2f^/	.
4d- 4A- 4D-\	4b- 4f-X/	.
=59	=59	=59
4A- 4AA-\	8cc-L 8e-/	.
.	16r	.
.	16a-/Jk	.
4A- 4AA-\	4cc- 4e-/	.
4G-X 4GG-X^>/	4dd- 4b- 4g-X 4f-X^/	.
!!linebreak:original
=60	=60	=60
*	*^	*
*xywh-4:237,1443,2611,653	*xywh-4:237,1443,2611,653	*xywh-4:237,1443,2611,653	*
4C-X 4CC-X/	4ee- 4cc-X 4g-X 4e-/	4ryy	.
*	*Xbrackettup	*	*
4BB- 4BBB-/	12r	2d- 2Gn^\	.
.	12e-`</L	.	.
.	12f-X`</J	.	.
4E- 4EE-/	12fn`</L	.	.
.	12g-X`</	.	.
.	12gn`</J	.	.
*	*v	*v	*
=61	=61	=61
!	!LO:TX:t=P:problem=marcato na dole	!
4A- 4AA-^^\	4a- 4e- 4c-X^^</	.
4A- 4AA-^^\	4a- 4e- 4c-^^</	.
4G-X 4GG-X^^\	4a- 4e- 4cn^^</	.
=62	=62	=62
*	*^	*
!	!	!	!LO:DY:a
4F-X 4FF-X^>/	[4a- [<4A-/	4d-\	sff
4E- 4EE-/	4.a-] 4.A-/]	4g-X 4cn\	.
4D- 4DD-/	.	4f-X 4d-\	.
.	8b- 8B-/	.	.
*	*v	*v	*
=63	=63	=63
4AA- 4AAA-/	8cc-XL 8a- 8e- 8c-X/	.
.	16r	.
.	16a-/Jk	.
4AA- 4AAA-/	4cc- 4a- 4e- 4c-/	.
4GG-X 4GGG-X^/	4dd- 4b- 4g-X 4f-X^/	.
=64	=64	=64
4C-X 4CC-X/	4ee- 4cc-X 4g-X 4e-/	.
!LO:SIC:v:n=2:s=8CCC-\	!	!
8CC- 8CCC\	8C-y</	.
8r	8r	.
!	!	!LO:DY:rj
(8.e-\L	(8.ee-\L	f
16f-X\Jk	16ff-X\Jk	.
!!linebreak:original
=65	=65	=65
*xywh-4:208,1969,2590,621	*xywh-4:208,1969,2590,621	*
4d-\)	4dd-\)	.
8GG-X 8GGG-X\	8d-< 8B-< 8G-X< 8F-X</	.
8r	8r	.
!	!	!LO:DY:rj
(8.d-\L	(8.dd-/L	f >
16e-\Jk	16ee-/Jk	]]
=66	=66	=66
4c-X/)	4cc-X/)	.
8C-X 8CC-X\	8c-X< 8G-X< 8E-</	.
8r	8r	.
(8.E-\L	(8.e-\L	p
16F-X\Jk	16f-X\Jk	.
=67	=67	=67
4D-\)	4d-\)	.
8GG-X 8GGG-X/	8bb-: 8gg-X: 8ff-X: 8b-:/	.
8r	8r	.
!	!	!LO:DY:rj
(8.D-\L	(8.d-\L	p
16E-\Jk	16e-\Jk	.
=68	=68	=68
4C-X/)	4c-X\)	.
!LO:SIC:v:n=2:s=8CC-/	!	!
8C- 8CC/	8ccc-X: 8gg-X: 8ee-: 8cc-X:/	p
8r	8r	.
!LO:SIC:v:n=2:s=8CC-/	!	!LO:DY:t=%s e pesante
8C-L 8CC/	8cc-L 8c-/	ff
!	!LO:TX:b:t=maestoso.	!
8F-XJ 8FF-X/	8ff-XJ 8f-X/	.
=69	=69	=69
8.E-L 8.EE-/	8.ee-L 8.e-/	.
16D-Jk 16DD-/	16dd-Jk 16d-/	.
4C-X 4CC-X/	4cc-X 4c-X/	.
4BB- 4BBB-/	4b- 4B-/	.
=70	=70	=70
4AA- 4AAA-/	4a- 4A-/	.
4r	4r	.
!	!	!LO:DY:b=2
8C-XL 8CC-X/	4r	pp
8F-XJ 8FF-X/	.	.
!!linebreak:original
=71	=71	=71
*xywh-4:265,2537,2607,690	*xywh-4:265,2537,2607,690	*
8E-L 8EE-/	4r	.
8D-J 8DD-/	.	.
!	!LO:S:s=1:note:problem=note-level slur	!
!	!LO:S:s=2:note:problem=note-level slur	!
4C-X 4CC-X/	[4e- (4c-X (4A-/	pp
!	!LO:S:s=1:note:problem=note-level slur	!
!	!LO:S:s=2:note:problem=note-level slur	!
4BB- 4BBB-/	4e-] 4d-) 4G/)	.
=72||	=72||	=72||
*k[b-e-a-d-g-c-f-]	*k[b-e-a-d-g-c-f-]	*
!LO:TX:t=P:znaki:problem= F- zamiast FF-	!	!
8AA-`/	4e- 4c- 4A-/	.
!	!LO:TX:b:Bi:t=una corda	!
(8E-\L	.	.
8c- 8A-\	4r	.
8E-\J	.	.
8c- 8A-`\)	4r	.
8r	.	.
=73	=73	=73
8AA-`/	4r	.
(8E-\L	.	.
8c- 8A-\	4r	.
8E-\J	.	.
8c- 8A-`\)	(8.e-/L	p
8r	.	.
!	!LO:TX:b:Bi:t=con molto espressione	!
.	16a-/Jk)	.
=74	=74	=74
*	*^	*
8AA-`/	2cc-/	4r	.
(8E-\L	.	.	.
8c- 8A-\	.	4e-\	.
8E-\J	.	.	.
8c- 8A-`\)	(<8.a-/L	4r	.
8r	.	.	.
.	16cc-/Jk)	.	.
=75	=75	=75	=75
8GG-`/	2ee-/	4r	.
(8E-\L	.	.	.
8c- 8A-\	.	4a- 4e-\	.
8E-\J	.	.	.
8c- 8A-`\)	(<8.dd-/L	4r	.
8r	.	.	.
.	16ee-/Jk)	.	.
!!pagebreak:original
=76	=76	=76	=76
*xywh-5:245,192,2654,704	*xywh-5:245,192,2654,704	*xywh-5:245,192,2654,704	*
8AA-`/	2ff-/	4r	<
(8F-\L	.	.	.
8d- 8A-\	.	4a- 4f-\	.
8F-\J	.	.	.
8d- 8A-`\)	(<8.dd-/L	4r	.
8r	.	.	.
.	16ff-/Jk)	.	[
=77	=77	=77	=77
8AA-`/	2aa-^/	4rf	.
(8E-\L	.	.	.
8c- 8A-\	.	4a- 4e-\	.
8E-\J	.	.	.
8c- 8A-`\)	(<8.ee-/L	4r	.
8r	.	.	.
.	16ff-/Jk)	.	.
=78	=78	=78	=78
8BB-`/	2gg-/	4re	.
(8F-\L	.	.	.
8d- 8G-\	.	4g- 4f-\	.
8F-\J	.	.	.
8d- 8G-`\)	(<8.dd-/L	4r	.
8r	.	.	.
.	16ddn/Jk)	.	.
=79	=79	=79	=79
8C-`/	2ee-/	4re	.
(8E-\L	.	.	.
!	!	!	!LO:DY:rj
8c- 8G-\	.	4g- 4e-\	p
8E-\J	.	.	.
8c- 8G-`\)	(<8.cc-/L	4r	>
8r	.	.	.
.	16dd-X/Jk)	.	.
=80	=80	=80	=80
8EE-`/	2ee-/	4rc	.
(8E-\L	.	.	.
8d- 8B-\	.	4gn 4e-\	.
8E-\J	.	.	.
8d- 8B-`\)	(<8.b-/L	4r	]
8r	.	.	.
.	16cc-/Jk)	.	.
!!linebreak:original
=81	=81	=81	=81
*xywh-5:261,847,2597,634	*xywh-5:261,847,2597,634	*xywh-5:261,847,2597,634	*
8AA-`/	2a-/	4r	.
(8E-\L	.	.	.
8c- 8A-\	.	4c-\	.
8E-\J	.	.	.
!	!	!	!LO:HP:a
8c- 8A-`\)	(<8.e-/L	4r	<
8r	.	.	.
.	16a-/Jk)	.	.
=82	=82	=82	=82
8AA-`/	2cc-/	4rc	[
(8E-\L	.	.	.
8c- 8A-\	.	4e-\	.
8E-\J	.	.	.
!	!	!	!LO:HP:a
8c- 8A-`\)	(<8.a-/L	4r	<
8r	.	.	.
.	16cc-/Jk)	.	.
=83	=83	=83	=83
8GG-`/	2ee-/	4re	[
(8E-\L	.	.	.
8c- 8G-\	.	4g- 4e-\	.
8E-\J	.	.	.
8c- 8G-`\)	(<8.cc#X/L	4r	<
8r	.	.	.
.	16dd#X/Jk)	.	.
*	*v	*v	*
=84||	=84||	=84||
*k[f#c#g#d#a#]	*k[f#c#g#d#a#]	*
*	*^	*
8FF#`/	2ee/	4re	.
(8E\L	.	.	.
8c# 8A#\	.	4f# 4e\	.
8E\J	.	.	.
8c# 8A#`\)	(<8.dd#/L	4r	.
8r	.	.	.
.	16cc#/Jk)	.	[[
=85	=85	=85	=85
8BB`/	2ff#/	4re	sf >
(8D#\L	.	.	.
8B 8F#\	.	4f# 4d#\	.
8D#\J	.	.	.
8B 8F#`\)	(<8.ee/L	4re	.
8r	.	.	.
.	16dd#/Jk)	.	]
!!linebreak:original
=86	=86	=86	=86
*xywh-5:265,1417,2617,577	*xywh-5:265,1417,2617,577	*xywh-5:265,1417,2617,577	*
8C# 8CC#`/	2cc#/	4r	p
(8E\L	.	.	.
8An\	.	4e 4c#\	.
8E\J	.	.	.
8A`\)	(<8.ee/L	4r	.
8r	.	.	.
.	16an/Jk)	.	.
=87	=87	=87	=87
8Dn 8DDn`/	2g#/	4r	.
(8E\L	.	.	.
8G#\	.	4e 4dn\	<
8E\J	.	.	.
8G#`\)	(<8.a#X/L	4r	.
8r	.	.	.
.	16b/Jk)	.	[
=88	=88	=88	=88
8C# 8CC#`/	2ee/	4r	.
(8E\L	.	.	>
8An\	.	4e 4c#\	.
8E\J	.	.	.
8A`\)	(<8.cc#/L	4r	.
8r	.	.	.
.	16an/Jk)	.	]
=89	=89	=89	=89
8D-X 8DD-X`/	2f##X/	4r	.
(8E-X\L	.	.	.
8B-X 8Gn\	.	4e-X\	.
8E-\J	.	.	.
8B- 8G`\)	(<8.an/L	4r	.
8r	.	.	.
.	16b-X/Jk)	.	.
*	*v	*v	*
=90||	=90||	=90||
*k[b-e-a-d-g-c-f-]	*k[b-e-a-d-g-c-f-]	*
*	*^	*
!LO:TX:t=P:znaki:problem= F- zamiast FF-	!	!	!
8C- 8CC-`/	2ee-/	4r	pp
(8E-\L	.	.	.
8c- 8A-\	.	4a- 4e-\	.
8E-\J	.	.	.
8c- 8A-`\)	(<8.dd-/L	4r	.
8r	.	.	.
.	16cc-/Jk)	.	.
!!linebreak:original
=91	=91	=91	=91
*xywh-5:261,1933,2613,688	*xywh-5:261,1933,2613,688	*xywh-5:261,1933,2613,688	*
8D- 8DD-`/	2dd-/	4r	.
(8F-\L	.	.	.
8d- 8B-\	.	4a- 4f-\	.
8F-\J	.	.	.
8d- 8B-`\)	(<8.cc-/L	4r	.
8r	.	.	.
.	16b-/Jk)	.	.
=92	=92	=92	=92
!	!LO:TX:t=P:problem=extended text	!	!
!	!LO:TX:b:i:t=un poco ritard	!	!
8E- 8EE-`/	2cc-/	4r	.
(8E-\L	.	.	.
8c- 8A-\	.	4a- 4e-\	.
8E-\J	.	.	.
8c- 8A-`\)	(<8.b-/L	4r	.
8r	.	.	.
.	16a-/Jk)	.	.
=93	=93	=93	=93
8EE-`/	2b-/	4r	.
(8E-\L	.	.	.
8d- 8B-\	.	4e-\	.
8E-\J	.	.	.
8d- 8B-`\)	(<8.a-/L	4r	.
8r	.	.	.
.	16gn/Jk)	.	.
*	*v	*v	*
=94||	=94||	=94||
!	!LO:TX:a:B:t=a tempo.\ncon energica	!
4A- 4AA-^\	4a- 4e- 4c-^/	ff
4A- 4AA-^\	4a- 4e- 4c-^/	.
4G- 4GG-^\	4a- 4e- 4cn^/	.
=95	=95	=95
*	*^	*
4F- 4FF-^/	[4a- [<4A-/	4d-^>\	.
4E- 4EE-^/	4.a-] 4.A-]/	4g- 4cn^>\	.
4D- 4DD-^/	.	4f- 4d-\	.
.	8b- 8B-/	.	.
*	*v	*v	*
=96	=96	=96
4AA- 4AAA-/	8cc-XL 8a- 8e- 8c-X/	.
.	16r	.
.	16a-/Jk	.
4AA- 4AAA-/	4cc- 4a- 4e- 4c-/	.
4GG- 4GGG-/	4dd- 4b- 4g- 4f-/	.
!!linebreak:original
=97	=97	=97
*	*^	*
*xywh-5:269,2523,2609,778	*xywh-5:269,2523,2609,778	*	*
4C- 4CC-/	4ee- 4cc- 4g- 4e-/	4r	.
*	*Xtuplet	*	*
4BB- 4BBB-/	12r	2d- 2Gn\	.
.	12e-/L	.	.
.	12f-`/J	.	.
4E- 4EE-/	12fn`/L	.	.
.	12g-X`/	.	.
.	12gn`/J	.	.
*	*v	*v	*
=98	=98	=98
4A- 4AA-^\	4a- 4e- 4c-^/	.
4A- 4AA-^\	4a- 4e- 4c-^/	.
4G-X 4GG-X^\	4a- 4e- 4cn^/	.
=99	=99	=99
*	*^	*
4F- 4FF-^/	[4a- [<4A-^</	4d-\	.
4E- 4EE-/	4.a-] 4.A-/]	4g- 4cn\	.
4D- 4DD-/	.	4f- 4d-\	.
.	8b- 8B-/	.	.
*	*v	*v	*
=100	=100	=100
4AA- 4AAA-/	8cc-XL 8a- 8e- 8c-X/	.
.	16r	.
.	16a-/Jk	.
4AA- 4AAA-/	4cc- 4a- 4e- 4c-/	.
4GG- 4GGG-/	4dd- 4b- 4g- 4f-/	.
=101	=101	=101
4C- 4CC-/	4ee- 4cc- 4g- 4e-/	.
8CC- 8CCC-\	8C-</	.
8r	8r<	.
!	!	!LO:DY:rj
(8.e-\L	(8.eee-L 8.ee-\	ff
16f-\Jk	16fff-Jk 16ff-\	.
=102	=102	=102
*	*	*^
4d-\)	4ddd- 4dd-\)	.	.
!	!	!LO:DY:rj	!LO:DY:b=2:rj
8GG- 8GGG-\	8d-< 8B-< 8G-< 8F-</	sff	sff
8r	8r<	.	.
!LO:TX:t=P:problem=brak początku łuku	!	!	!
(8.d-\L	(8.ddd-L 8.dd-\	.	.
16e-\Jk	16eee-Jk 16ee-\)	.	.
!!pagebreak:original
=103	=103	=103	=103
*xywh-6:161,229,2663,737	*xywh-6:161,229,2663,737	*	*
!	!LO:TX:t=P:znaki:problem= ff- zamiast f-	!	!
4c-\)	4ccc- 4cc-\	.	.
!	!	!LO:DY:rj	!LO:DY:b=2:rj
8C- 8CC-\	8c-< 8G-< 8E-</	sff	sff
8r	8r<	.	.
!	!	!	!LO:DY:b=2
(8.E-^\L	(8.e-^>/L	p	p
16F-\Jk	16f-/Jk	.	.
*	*	*v	*v
=104	=104	=104
4D-\)	4d-/)	.
8GG- 8GGG-/	8bb-: 8gg-: 8ff-: 8b-:\	.
8r	8r	.
(8.D-^\L	(8.d-^>/L	.
16E-\Jk	16e-/Jk	.
=105	=105	=105
4C-/)	4c-/)	.
8C- 8CC-/	8ccc-: 8gg-: 8ee-: 8cc-:\	p
!	!	!LO:DY:t=%s pesante 
8r	8r	ff
8C-L 8CC-/	8ccc-L 8cc-\	.
8F-J 8FF-/	8fff-J 8ff-\	.
=106	=106	=106
8E-L 8EE-/	8eee-L 8ee-\	.
8D-J 8DD-/	8ddd-J 8dd-\	.
4C- 4CC-/	4ccc- 4cc-\	.
4BB- 4BBB-/	4bb- 4b-\	.
=107	=107	=107
4AA- 4AAA-/	2aa- 2a-\	.
4r	.	.
!	!	!LO:DY:b=2
8C-L 8CC-/	4r	pp
8F-J 8FF-/	.	.
!!linebreak:original
=108	=108	=108
*xywh-6:129,881,2737,667	*xywh-6:129,881,2737,667	*
8E-L 8EE-/	4r	.
8D-J 8DD-/	.	pp
4C- 4CC-/	(4e- 4c- 4A-/	.
4BB- 4BBB-/	4e- 4d- 4Gn/)	.
=109	=109	=109
!	!	!LO:DY:b=2:rj
8.AA-L 8.AAA-\	2e- 2c- 2A-/	pp
16AA-Jk 16AAA-\	.	.
8.AA-L 8.AAA-\	.	.
16AA-Jk 16AAA-\	.	.
8.AA-L 8.AAA-\	4r	.
16AA-Jk 16AAA-\	.	.
=110	=110	=110
!	!	!LO:HP:b=2
8.AA-L 8.AAA-\	2.dn 2.c- 2.Fn</	<
16AA-Jk 16AAA-\	.	.
8.AA-L 8.AAA-\	.	.
16AA-Jk 16AAA-\	.	.
8.AA-L 8.AAA-\	.	.
16AA-Jk 16AAA-\	.	[
=111	=111	=111
!	!	!LO:HP:b=2
8.AA-L 8.AAA-\	2.fn 2.dn 2.c- 2.Fn<^>/	>
16AA-Jk 16AAA-\	.	.
8.AA-L 8.AAA-\	.	.
16AA-Jk 16AAA-\	.	.
8.AA-L 8.AAA-\	.	.
16AA-Jk 16AAA-\	.	]
=112	=112	=112
*	*	*^
!	!	!	!LO:DY:b=2:rj
8.GGnL 8.GGGn\	2bn 2fn 2dn 2Bn/	pp	pp
16GGJk 16GGG\	.	.	.
8.GGL 8.GGG\	.	.	.
16GGJk 16GGG\	.	.	.
8.GGL 8.GGG\	4Gn/	.	.
16GGJk 16GGG\	.	.	.
*	*	*v	*v
!!linebreak:original
=113||	=113||	=113||
*k[b-e-a-]	*k[b-e-a-]	*
*xywh-6:133,1442,2704,659	*xywh-6:133,1442,2704,659	*
!	!LO:TX:t=P:problem=kasoniki po bemolach	!
8C 8CC\	8cL 8E-</	pp
8r	16r	.
.	(16G/Jk	.
8E- 8C\	8c`/)	.
8r	8r	.
4G 4GG^\	(4d 4Bn^>t/	.
.	16qqc/LL	.
.	16qqd/JJ)	.
=114	=114	=114
*	*^	*
8G 8C\	8e-/L	8c\	.
8r	16rf	8r	.
.	(<16c/Jk	.	.
8G 8C\	8e-`</)	4r	.
8r	8r	.	.
4A- 4BB-^\	(<4f^T/	4d\	.
.	16qqe-/LL	.	.
.	16qqf/JJ)	.	.
=115	=115	=115	=115
8G 8E-\	8g/L	8B-\	.
8r	16rf	8r	.
.	(<16e-/Jk	.	.
8G 8E-\	8g`</)	4r	.
8r	8r	.	.
4A- 4F^\	(<4f^T/	4d\	.
.	16qqen/LL	.	.
.	16qqf/JJ)	.	.
=116	=116	=116	=116
8G\	8e-/L	8c\	.
8r	16rg	8r	.
.	(<16A-/Jk	.	.
8GG 8GGG`<\	8e-`</)	4r	.
8rEE	8r	.	.
8GG 8GGG`\	(4d^>t/	4Bn< 4F</	.
8r	.	.	.
*	*v	*v	*
.	16qqc/LL	.
.	16qqd/JJ)	.
!!linebreak:original
=117	=117	=117
*xywh-6:125,1975,2458,684	*xywh-6:125,1975,2458,684	*
8CCL 8CCC\	8c 8G< 8E-</	.
16r	8r	.
(<16GGG\Jk	.	.
8CC 8CCC`<\)	4r	.
8r	.	.
(4GGG^t/	4r	.
16qqFFF#X/LL	.	.
16qqGGG/JJ)	.	.
=118	=118	=118
8CL 8CC`\	8c<`/L	.
16r	16r<	.
16GG`\Jk	16G<`/Jk	.
4C 4CC\	4c</	.
(4GG^t\	(4G<^t</	.
16qqFF#X\LL	16qqF#X</LL	.
16qqGG\JJ)	16qqG</JJ)	.
=119	=119	=119
4C 4CC/	8ccL 8a- 8e- 8c/	ff
.	16r	.
.	16g/Jk	.
4C 4CC/	4cc 4g 4e- 4c/	.
4GG 4GGG^/	4dd 4bn 4g^/	.
=120	=120	=120
4CC 4CCC/	8ee-L 8cc 8g\	.
.	16r	.
.	16cc\Jk	.
4C 4CC/	4ee- 4cc 4g 4e-/	.
4BB- 4BBB-^/	4ff 4dd 4b-X^\	.
=121	=121	=121
4EE- 4EEE-/	8ggL 8ee- 8b-\	.
.	16r	.
.	16ee-\Jk	.
4E- 4EE-/	4gg 4ee- 4b- 4g\	.
4F 4FF^/	4ff 4dd 4a-^\	.
!!linebreak:original
=122	=122	=122
*xywh-6:129,2577,2638,835	*xywh-6:129,2577,2638,835	*
4G 4GG/	8ee-L 8cc 8g\	.
.	16r	.
.	16cc\Jk	.
4GG 4GGG/	4ee- 4cc 4g 4e-/	.
4GG 4GGG^/	4dd 4bn 4f^/	.
=123	=123	=123
*	*^	*
*8ba	*	*	*
8CCL 8CCC\	4cc 4g 4e-/	8.r<	.
16r	.	.	.
16GGG\Jk	.	16G</	.
4CC 4CCC\	4c</	2ryy	.
(4GGG^t\	(4G<^t</	.	.
*	*v	*v	*
16qqFFF#X\LL	16qqF#X</LL	.
16qqGGG\JJ)	16qqG</JJ)	.
*X8ba	*	*
=124	=124	=124
*	*	*^
8.CCL 8.CCC\	8.c</L	.	.
(<16GGG\Jk	16G</Jk	.	.
!	!LO:SIC:v:s=8c</	!	!
8CC 8CCC`\)	8B-</	.	.
!	!	!	!LO:DY:b=2 
(8G\L	(8g\L	p <	p
8c\	8cc\)	.	.
8e-\J)	8ee-\J	[[	.
*	*	*v	*v
=125	=125	=125
4..e- 4..c 4..An 4..F#X\	2ee- 2cc 2an 2f#X\	>
16GG 16GGG`/	.	.
16AA-XLL 16AAA-X`/	4dd 4g 4fn/	]
16AAn 16AAAn`/	.	.
16BB- 16BBB-`/	.	.
16BBnJJ 16BBBn`/	.	.
!!pagebreak:original
=126	=126	=126
*xywh-7:257,244,2691,736	*xywh-7:257,244,2691,736	*
8CL 8CC/	4cc 4g 4e-/	.
16r	.	.
(16GG/Jk	.	.
8C 8CC`/)	8r	.
(8c\L	(8cc\L	<
8e-\	8ee-\	.
8g\J)	8gg\J)	[[
=127	=127	=127
*	*	*^
4..g 4..e- 4..B-\	2gg 2ee- 2b-\	>	.
!	!	!	!LO:DY:b=2:rj
16GG 16GGG`/	.	]]	p
16AA-LL 16AAA-`/	4ff 4dd 4g\	.	.
16AAn 16AAAn`/	.	.	.
16BB- 16BBB-`/	.	.	.
16BBnJJ 16BBBn`/	.	.	.
*	*	*v	*v
=128	=128	=128
8CL 8CC`/	4ee- 4cc 4g\	.
16r	.	.
(16GG/Jk	.	.
8C 8CC`/)	8r	.
(8G\L	(8g\L	<
8c\	8cc\	.
8e-\J)	8ee-\J)	[
=129	=129	=129
*	*	*^
4..e- 4..c 4..An 4..F#X\	2ee- 2cc 2an 2f#X\	>	.
.	.	.	.
!	!	!	!LO:DY:b=2:rj
16GG 16GGG`/	.	.	p
16AA-XLL 16AAA-X`/	4dd 4g 4fn/	]	.
16AAn 16AAAn`/	.	.	.
16BB- 16BBB-`/	.	.	.
16BBnJJ 16BBBn`/	.	.	.
*	*	*v	*v
!!linebreak:original
=130	=130	=130
*xywh-7:252,898,2658,637	*xywh-7:252,898,2658,637	*
8CL 8CC`/	4cc 4g 4e-/	.
16r	.	.
(16GG/Jk	.	.
8C 8CC`/)	8r	.
(8G\L	(8g/L	p <
8A-\	8a-/	.
8D-X\J)	8d-X/J)	[
=131	=131	=131
*	*^	*
4F\	(<2f/	4r	>
8.r	.	4d-X< 4A-</	.
16FF#X 16FFF#X`\	.	.	.
16GGLL 16GGG`<\	4dn 4G< 4Fn</)	4ryy	]
16AA- 16AAA-`<\	.	.	.
16AAn 16AAAn`<\	.	.	.
16BBnJJ 16BBBn`<\	.	.	.
*	*v	*v	*
=132	=132	=132
*	*	*^
8CL 8CC`<\	4c 4G< 4E-</	.	.
16r	.	.	.
(16GG\Jk	.	.	.
8C 8CC`\)	8r	.	.
!	!	!	!LO:DY:b=2 
(8G\L	(8ggL 8g\	f <	f
8c\	8ccc 8cc\	.	.
8e-\J)	8eee-J 8ee-\)	[	.
*	*	*v	*v
=133	=133	=133
*^	*	*
4..e- 4..c 4..An 4..F#\	4rAAA	2eee- 2ccc 2aan 2ff#X 2ee-\	>
.	2CC 2CCC\	.	.
16GG 16GGG`</	.	.	.
16AA-XLL 16AAA-X`</	.	4ddd 4gg 4ffn 4dd\	]
16AAn 16AAAn`</	.	.	.
16BB- 16BBB-`</	.	.	.
16BBnJJ 16BBBn`</	.	.	.
*v	*v	*	*
!!linebreak:original
=134	=134	=134
*xywh-7:240,1428,2662,687	*xywh-7:240,1428,2662,687	*
8CL 8CC/	4ccc 4gg 4ee- 4cc\	.
16r	.	.
(16GG/Jk	.	.
8C 8CC`/)	8r	.
(8c\L	(8cccL 8cc\	<
8e-\	8eee- 8ee-\	.
8g\J)	8gggJ 8gg\)	[
=135	=135	=135
*^	*	*
4..g 4..e- 4..B-\	4rGG	2ggg 2eee- 2bb- 2gg\	>
.	2BBB- 2BBBB-\	.	.
16GG 16GGG/	.	.	.
16AA-LL 16AAA-/	.	4fff 4ddd 4gg 4ff\	]
16AAn 16AAAn/	.	.	.
16BB- 16BBB-/	.	.	.
16BBnJJ 16BBBn/	.	.	.
*v	*v	*	*
=136	=136	=136
8CL 8CC/	4ggg 4eee- 4bb- 4gg\	.
16r	.	.
(16GG/Jk	.	.
8C 8CC`/)	8r	.
(8G\L	(8ggL 8g\	<
8c\	8ccc 8cc\	.
8e-\J)	8eee-J 8ee-\)	[
=137	=137	=137
*^	*	*
4..e- 4..c 4..An 4..F#X\	4rAAA	2eee- 2ccc 2aan 2ff#X 2ee-\	>
.	2CC 2CCC\	.	.
16GG 16GGG/	.	.	.
16AA-XLL 16AAA-X/	.	4ddd 4gg 4ffn 4dd\	]
16AAn 16AAAn/	.	.	.
16BB- 16BBB-/	.	.	.
16BBnJJ 16BBBn/	.	.	.
*v	*v	*	*
!!linebreak:original
=138	=138	=138
*xywh-7:223,1974,2484,612	*xywh-7:223,1974,2484,612	*
8CL 8CC`/	4ccc 4gg 4ee- 4cc\	.
16r	.	.
(16GG/Jk	.	.
8C 8CC`/)	8r	.
(8G\L	(8ggL 8g\	<
8A-\	8aa- 8a-\	.
8D-X\J)	8dd-XJ 8d-X\)	[
=139	=139	=139
*	*^	*
4F\	4ra	2ff 2f\	>
8.FFL 8.FFF/	(<4dd-X 4a-/	.	.
16FF#XJk 16FFF#X/	.	.	]
16GGLL 16GGG/	4g 4fn/)	4ddn 4dn\	.
16AA- 16AAA-/	.	.	.
16AAn 16AAAn/	.	.	.
16BBnJJ 16BBBn/	.	.	.
*	*v	*v	*
=140||	=140||	=140||
!	!LO:TX:a:B:t=con energica.	!
4C 4CC/	4cc 4g 4e- 4c/	ff
4C 4CC/	4cc 4g 4e- 4c/	.
4BB- 4BBB-/	4cc 4g 4en 4c/	.
=141	=141	=141
*	*^	*
4AA- 4AAA-/	[4cc [<4c/	4f\	.
4GG 4GGG/	4.cc] 4.c/]	4b- 4en\	.
4FF 4FFF/	.	4a- 4f\	.
.	8dd 8d/	.	.
*	*v	*v	*
!!linebreak:original
=142	=142	=142
*xywh-7:219,2525,2641,716	*xywh-7:219,2525,2641,716	*
4CC 4CCC/	8ee-XL 8cc 8g 8e-X\	.
.	16r	.
.	16cc\Jk	.
4C 4CC/	4ee- 4cc 4g 4e-\	.
4BB- 4BBB-/	4ff 4dd 4b-^T\	.
.	16qqee-/LL	.
.	16qqff/JJ	.
=143	=143	=143
4E- 4EE-/	4gg 4ee- 4b-\	.
8EE- 8EEE-/	4r	.
8r	.	.
(8.G\L	(8.ggL 8.g\	>
16A-\Jk	16aa-Jk 16a-\	]]
=144	=144	=144
4F\)	4ff 4f\)	.
8BB- 8BBB-`/	8d 8B- 8A-`/	.
8r	8r	.
(8.F\L	(8.ffL 8.f\	>
16G\Jk	16ggJk 16g\	]]
=145	=145	=145
4E-\)	4ee- 4e-/)	.
8EE- 8EEE-`/	8e- 8B- 8G`/	.
!	!	!LO:DY:t=%s pesante
8r	8r	ff
8E-L 8EE-^/	8ee-L 8e-^\	.
8A-J 8AA-^/	8aa-J 8a-^\	.
=146	=146	=146
8GL 8GG^/	8ggL 8g^\	.
8FJ 8FF^/	8ffJ 8f^\	.
4E- 4EE-^/	4ee- 4e-^>/	.
4D 4DD^/	4dd 4d^>/	.
!!pagebreak:original
=147	=147	=147
*^	*	*^
*xywh-8:269,157,2590,784	*xywh-8:269,157,2590,784	*xywh-8:269,157,2590,784	*	*
4C 4CC/	4ryy	4cc 4c^>/	.	.
!	!	!LO:TX:a:Bi:t=Calando	!LO:DY:a	!LO:DY:b=2
4G 4E-/	(4C\	4c/	p	.
4G 4En/	4BB-\	4c/	.	.
*	*	*	*v	*v
=148	=148	=148	=148
(4A- 4F/	4AA-\	[4c/	.
4B- 4En/	4GG\	4.c/]	.
4A- 4F/)	4FF\)	.	.
.	.	(8d/	.
=149	=149	=149	=149
4G 4E-X/	4CC\	8e-/L)	.
.	.	16r	.
.	.	(16c/Jk	.
2ryy	4G 4C\	8e-/)	.
.	.	8r	.
.	(4A- 4BB-\	(4f 4d^>t/	.
*v	*v	*	*
.	16qqe-/LL	.
.	16qqf/JJ)	.
=150	=150	=150
4G 4E-\)	4g 4B-/	.
8EE-`/	4r	.
8r	.	.
(8.G\L	(8.g/L	>
16A-\Jk	16a-/Jk	]]
=151	=151	=151
4F\)	4f/)	.
8BBB-`\	8B-< 8A-< 8D<`/	.
8r	8r	.
(8.F\L	(8.f/L	>
16G\Jk	16g/Jk	]]
=152	=152	=152
4E-\)	4e-/)	.
8E- 8EE-`\	8B-< 8G<`/	.
8r	8r	.
!	!	!LO:DY:rj
(>8E-L 8EE-/	(8e-/L	pp
8A-J 8AA-/	8a-/J	.
!!linebreak:original
=153	=153	=153
*xywh-8:277,828,2606,707	*xywh-8:277,828,2606,707	*
8GL 8GG/	8g/L	.
8FJ 8FF/	8f/J	.
4E- 4EE-/	4e-/	.
4D 4DD/	4d/	.
=154	=154	=154
4C 4CC/)	4c/)	.
4r	4r	.
8AA-\L	8E-<L 8C</	pp
8FF\J	8A-<J 8C</	.
=155	=155	=155
4BBBn\	8G<L 8D</	.
.	8F</J	.
4CC\	4E-< 4C</	.
4AA- 4FF\	4D< 4C</	.
=156	=156	=156
8GG\	4E-< 4C</	.
16r	.	.
16GGG`\	.	.
8GGG`<\L	4r<	.
16r	.	.
16GGG`<\Jk	.	.
8GGG`<\	4r<	.
8r	.	.
*	*clefF4	*
=157	=157	=157
8.rCC	4BBn 4GG 4FF/	pp
16GGG`<\	.	.
8GGG`<\L	4r	.
16r	.	.
16GGG`<\Jk	.	.
8GGG`<\	4r	.
8rCC	.	.
!!linebreak:original
=158	=158	=158
*xywh-8:273,1394,2562,646	*xywh-8:273,1394,2562,646	*
!	!	!LO:DY:b=2:rj
8CCL 8CCC`/	8C 8GG 8EE-/	pp
16r	8r	.
16CCJk 16CCC`/	.	.
8CCL 8CCC`/	4r	.
16r	.	.
16CCJk 16CCC`/	.	.
8CCL 8CCC`/	4r	.
16r	.	.
16CCJk 16CCC`/	.	.
*	*clefG2	*
=159	=159	=159
8CCL 8CCC`/	(2.a- 2.f 2.d 2.Bn^>/	.
16r	.	.
16CCJk 16CCC`/	.	.
8CCL 8CCC`/	.	.
16r	.	.
16CCJk 16CCC`/	.	.
8CCL 8CCC`/	.	.
16r	.	.
16CCJk 16CCC`/	.	.
=160	=160	=160
8CCL 8CCC`/	4g 4e- 4c/)	.
16r	.	.
16CCJk 16CCC`/	.	.
8CCL 8CCC`/	4r	.
16r	.	.
16CCJk 16CCC`/	.	.
8CCL 8CCC`/	4r	.
16r	.	.
16CCJk 16CCC`/	.	.
=161	=161	=161
8CCL 8CCC`/	(2.f 2.d 2.Bn 2.A-^>/	.
16r	.	.
16CCJk 16CCC`/	.	.
8CCL 8CCC`/	.	.
16r	.	.
16CCJk 16CCC`/	.	.
8CCL 8CCC`/	.	.
16r	.	.
16CCJk 16CCC`/	.	.
!!linebreak:original
=162	=162	=162
*xywh-8:281,1968,2594,626	*xywh-8:281,1968,2594,626	*
8CCL 8CCC`/	4e- 4c 4G/)	.
16r	.	.
16CCJk 16CCC`/	.	.
8CCL 8CCC`/	4r	.
16r	.	.
16CCJk 16CCC`/	.	.
8CCL 8CCC`/	4r	.
16r	.	.
16CCJk 16CCC`/	.	.
=163	=163	=163
8CCL 8CCC`/	(2.d< 2.Bn< 2.A-< 2.F<^/	.
16r	.	.
16CCJk 16CCC`/	.	.
8CCL 8CCC`/	.	.
16r	.	.
16CCJk 16CCC`/	.	.
8CCL 8CCC`/	.	.
16r	.	.
16CCJk 16CCC`/	.	.
=164	=164	=164
8CCL 8CCC`/	4c< 4G< 4E-</)	.
16r	.	.
16CCJk 16CCC`/	.	.
8CCL 8CCC`/	4rB<	.
16r	.	.
16CCJk 16CCC`/	.	.
8CCL 8CCC`/	4rB<	.
16r	.	.
16CCJk 16CCC`/	.	.
=165	=165	=165
8CCL 8CCC`/	(2.Bn< 2.A-< 2.F< 2.D<^/	.
16r	.	.
16CCJk 16CCC`/	.	.
8CCL 8CCC`/	.	.
16r	.	.
16CCJk 16CCC`/	.	.
8CCL 8CCC`/	.	.
16r	.	.
16CCJk 16CCC`/	.	.
!!linebreak:original
=166	=166	=166
*xywh-8:257,2509,2626,905	*xywh-8:257,2509,2626,905	*
8CCL 8CCC/	8c< 8G< 8E-</)	.
!	!LO:TX:t=P:problem=extended text	!
!	!LO:TX:b:t=mo - ren - do	!
16r	8r	.
*8ba	*	*
(16GGG/Jk	.	.
8CC 8CCC`/)	4r	.
8r	.	.
((4GGG^t/	4r	.
16qqFFF#X/LL	.	.
16qqGGG/JJ)	.	.
=167	=167	=167
8CCL 8CCC/)	2.r	.
16r	.	.
(16GGG/Jk	.	.
8CC 8CCC`/)	.	.
8r	.	.
((4GGG^t/	.	.
16qqFFF#X/LL	.	.
16qqGGG/JJ)	.	.
*	*clefF4	*
=168	=168	=168
8CCL 8CCC`/)	8C 8GG 8EE-/	.
16r	8r	.
(16GGG/Jk	.	.
8CC 8CCC`/)	4r	.
8r	.	.
((4GGG^t/	4r	.
16qqFFF#X/LL	.	.
16qqGGG/JJ)	.	.
=169	=169	=169
8CCL 8CCC`/)	2.r	.
16r	.	.
(16GGG/Jk	.	.
8CC 8CCC`/)	.	.
8r	.	.
((4GGG^t/	.	.
16qqFFF#X/LL	.	.
16qqGGG/JJ)	.	.
=170	=170	=170
8CC 8CCC`/)	2.r	.
8r	.	.
8CCC`/	.	.
*X8ba	*	*
8r	.	.
4r	.	.
==	==	==
*-	*-	*-
!!!system-decoration: {(s1,s2)}
!!!RDF**kern: > = above
!!!RDF**kern: < = below
!!!ENC: Katarzyna Serwa
!!!END: 2022-02-24
!!!ENC: Andrzej Gręziak
!!!END: 2022-02-19
!!!IIIF: https://polona.pl/iiif/item/MTA1NjQxNA/manifest.json
!!!ENC-iiif: Natalia Wrzos
!!!END-iiif: 2022-08-30
!!!YEC: Copyright 2022 Narodowy Instytut Fryderyka Chopina (https://polishscores.org)
!!!YEM: Licence CC BY 4.0 (https://creativecommons.org/licenses/by/4.0)
